X:1
T:Now to the power of God supreme Canon of Four In One Words: Isaac Watts, 1709 (Hymn 137, Book 1)   88. 88. (L. M.) Music: William Billings, 1770 (B-flat Major) No copyright.  Transcribed from The New-England Psalm-Singer, 1770.
%%score 1 2 3 4
L:1/8
M:3/4
K:Bb
V:1 treble nm="1" snm="Tr."
V:2 treble nm="2" snm="C."
V:3 treble nm="3" snm="T."
V:4 treble nm="4" snm="B."
V:1
 B2 | d4 d2 | f4 d2 | (c2 B2) A2 | B4 |] %5
w: Now|to the|power of|God * su-|preme|
V:2
 B2 | B4 B2 | F4 G2 | E4 F2 | B4 |] %5
w: Be|ev- er-|last- ing|hon- ors|given,|
V:3
 d2 | f4 d2 | c4 d2 | g4 f2 | f4 |] %5
w: He|saves from|hell (we|bless His|name)|
V:4
 d2 | (f>e d2) B2 | (A>B c2) B2 | (e2 d2) c2 | B4 |] %5
w: He|calls * * our|wan- * * dering|feet * to|heaven.|

